img/svg/icon-font/handle-care.svg

<svg width="22" height="22" viewBox="0 0 22 22" fill="none" xmlns="http://www.w3.org/2000/svg">
<g clip-path="url(#clip0)">
<path d="M21.1834 17.7031C21.6581 17.7031 22.0428 17.3184 22.0428 16.8438V15.9464C22.0428 13.9061 20.3826 12.2461 18.3421 12.2461H17.5981C17.6936 11.977 17.7459 11.688 17.7459 11.3867V4.33984C17.7459 3.86517 17.3612 3.48047 16.8866 3.48047H14.3085V2.57812C14.3085 1.15646 13.1518 0 11.7303 0C10.3087 0 9.15222 1.15646 9.15222 2.57812V3.48047H6.5741C6.09943 3.48047 5.71473 3.86517 5.71473 4.33984V11.3867C5.71473 11.6152 5.74494 11.8367 5.801 12.0477L4.41476 10.781C3.92465 10.3061 3.27827 10.0478 2.59682 10.0547C1.90814 10.0612 1.26328 10.3355 0.780887 10.827C0.298497 11.3186 0.0364891 11.9685 0.0430351 12.657C0.0494133 13.3457 0.323674 13.9905 0.815295 14.4729C0.82117 14.4788 0.827213 14.4845 0.833255 14.49L5.21001 18.5424C6.35053 19.6449 7.6745 20.5058 9.145 21.101C10.6187 21.6975 12.1719 22 13.7618 22H21.1834C21.6581 22 22.0428 21.6153 22.0428 21.1406C22.0428 20.666 21.6581 20.2812 21.1834 20.2812H13.7618C10.9987 20.2812 8.38365 19.2226 6.39836 17.3006C6.39383 17.2963 6.38913 17.2919 6.38443 17.2875L2.0117 13.2389C1.85242 13.0789 1.76379 12.867 1.76161 12.6409C1.75943 12.4114 1.84688 12.1947 2.00767 12.0309C2.16847 11.8671 2.38348 11.7756 2.61293 11.7734C2.8417 11.7721 3.05906 11.8587 3.22288 12.0195C3.23027 12.0267 3.23765 12.0336 3.2452 12.0405L8.20556 16.5732C8.67688 17.0826 9.35044 17.4023 10.0975 17.4023H14.3944C14.8691 17.4023 15.2538 17.0176 15.2538 16.543C15.2538 16.0683 14.8691 15.6836 14.3944 15.6836H10.0975C9.92011 15.6836 9.75512 15.6295 9.61799 15.5371C9.61295 15.532 9.60825 15.5267 9.60305 15.5218L9.42866 15.3625C9.30966 15.215 9.23815 15.028 9.23815 14.8242C9.23815 14.3504 9.6237 13.9648 10.0975 13.9648H18.3421C19.435 13.9648 20.3241 14.8538 20.3241 15.9464V16.8438C20.3241 17.3184 20.7088 17.7031 21.1834 17.7031ZM10.871 2.57812C10.871 2.10429 11.2565 1.71875 11.7303 1.71875C12.2042 1.71875 12.5897 2.10429 12.5897 2.57812V3.48047H10.871V2.57812ZM10.0975 12.2461H8.29284C7.81901 12.2461 7.43347 11.8605 7.43347 11.3867V5.19922H9.15222V6.10156C9.15222 6.57623 9.53692 6.96094 10.0116 6.96094C10.4863 6.96094 10.871 6.57623 10.871 6.10156V5.19922H12.5897V6.10156C12.5897 6.57623 12.9744 6.96094 13.4491 6.96094C13.9237 6.96094 14.3085 6.57623 14.3085 6.10156V5.19922H16.0272V11.3867C16.0272 11.8605 15.6417 12.2461 15.1678 12.2461H10.0975Z" fill="#4C51CB"/>
</g>
<defs>
<clipPath id="clip0">
<rect width="22" height="22" fill="white"/>
</clipPath>
</defs>
</svg>

<svg width="22" height="22" fill="none" xmlns="http://www.w3.org/2000/svg"><g clip-path="url(#clip0)"><path d="M21.183 17.703a.86.86 0 00.86-.86v-.897c0-2.04-1.66-3.7-3.7-3.7h-.745c.096-.269.148-.558.148-.86V4.34a.86.86 0 00-.86-.86H14.31v-.902A2.581 2.581 0 0011.73 0a2.58 2.58 0 00-2.578 2.578v.902H6.574a.86.86 0 00-.86.86v7.047c0 .228.03.45.087.66l-1.386-1.266a2.561 2.561 0 00-1.818-.726 2.562 2.562 0 00-1.816.772 2.561 2.561 0 00-.738 1.83 2.56 2.56 0 00.79 1.833l4.377 4.052a12.248 12.248 0 003.935 2.559 12.24 12.24 0 004.617.899h7.421a.86.86 0 100-1.719h-7.421a10.534 10.534 0 01-7.378-2.993l-4.372-4.05a.854.854 0 01-.25-.597.854.854 0 01.246-.61.859.859 0 011.238.01l4.96 4.532c.47.51 1.144.83 1.892.83h4.296a.86.86 0 100-1.72h-4.296a.855.855 0 01-.48-.146l-.015-.015-.174-.16a.86.86 0 01.669-1.398h8.244c1.093 0 1.982.89 1.982 1.982v.898c0 .474.385.86.86.86zM10.871 2.578a.86.86 0 011.719 0v.902h-1.72v-.902zm-.774 9.668H8.293a.86.86 0 01-.86-.86V5.2h1.72v.903a.86.86 0 101.718 0V5.2h1.719v.903a.86.86 0 101.719 0V5.2h1.718v6.188a.86.86 0 01-.86.86h-5.07z" fill="#4C51CB"/></g><defs><clipPath id="clip0"><path fill="#fff" d="M0 0h22v22H0z"/></clipPath></defs></svg>
